X:56
T:The Road to Lisdoonvarna
B:Terry "Cuz" Teahan "Sliabh Luachra on Parade" 1980
Z:Patrick Cavanagh
M:12/8
L:1/8
R:Slide
K:D
| E2B B2A B3 c2d | F2A ABA D2E FED | 
E2B B2A B3 c2d | cdc BcB E3 E3 :| 
| e2f gfe d2A Bcd | c2A ABc d2B ABA | 
e2f gfe d2A Bcd | cdc BAB E3 E3 :|| 

